img/archive.svg

<svg width="40" height="40" viewBox="0 0 40 40" fill="none" xmlns="http://www.w3.org/2000/svg">
<g id="vuesax/bold/archive">
<g id="archive">
<path id="Vector" d="M28.0332 3.33337H11.9665C8.41654 3.33337 5.5332 6.23337 5.5332 9.76671V33.25C5.5332 36.25 7.6832 37.5167 10.3165 36.0667L18.4499 31.55C19.3165 31.0667 20.7165 31.0667 21.5665 31.55L29.6999 36.0667C32.3332 37.5334 34.4832 36.2667 34.4832 33.25V9.76671C34.4665 6.23337 31.5832 3.33337 28.0332 3.33337ZM25.0165 16.25C23.3999 16.8334 21.6999 17.1334 19.9999 17.1334C18.2999 17.1334 16.5999 16.8334 14.9832 16.25C14.3332 16.0167 13.9999 15.3 14.2332 14.65C14.4832 14 15.1999 13.6667 15.8499 13.9C18.5332 14.8667 21.4832 14.8667 24.1665 13.9C24.8165 13.6667 25.5332 14 25.7665 14.65C25.9999 15.3 25.6665 16.0167 25.0165 16.25Z" fill="white"/>
</g>
</g>
</svg>

<svg xmlns="http://www.w3.org/2000/svg" width="40" height="40" fill="none"><path fill="#fff" d="M28.033 3.333H11.966c-3.55 0-6.433 2.9-6.433 6.434V33.25c0 3 2.15 4.267 4.783 2.817l8.134-4.517c.867-.483 2.267-.483 3.117 0l8.133 4.517c2.633 1.466 4.783.2 4.783-2.817V9.767c-.016-3.534-2.9-6.434-6.45-6.434M25.016 16.25a14.8 14.8 0 0 1-5.016.883c-1.7 0-3.4-.3-5.017-.883a1.25 1.25 0 0 1-.75-1.6c.25-.65.967-.983 1.617-.75 2.683.967 5.633.967 8.317 0a1.249 1.249 0 1 1 .85 2.35"/></svg>
